X:672
T:Miller (Dawn Reel), The
C:Joe Buchanan's Scottish Tome - Page 207.1
I:207 1
Z:Carl Allison
R:Reel
L:1/8
M:4/4
K:A
"A"A,2 CE "D"D2 FA | "E"E2 GB "A"A2 cA | "E7"BEcE dEcE | "E7"BEcB AFEC |
"A"A,2 CE "D"D2 FA | "E"E2 GB "A"A2 ce | "D"fefg agaf | "E7"ecBc "A"A2 :|
((3efg) | "A"a2 (fa) fece | "B7"b2 (bg) agfe | "E7"gebe gbeg | "B7"fe^df e2 ((3efg) |
"A"a2 (ga) fece | "D"fgag "A"fece | "D"fA"E7"gA "D"afed | "A"cA"E7"BG "A"A2 :|
